img/Star.svg

<svg width="20" height="19" viewBox="0 0 20 19" fill="none" xmlns="http://www.w3.org/2000/svg">
<path d="M9.51074 0L11.7559 6.90983H19.0213L13.1435 11.1803L15.3886 18.0902L9.51074 13.8197L3.63289 18.0902L5.87803 11.1803L0.000177383 6.90983H7.2656L9.51074 0Z" fill="#F68533"/>
</svg>

<svg xmlns="http://www.w3.org/2000/svg" width="20" height="19" fill="none"><path fill="#F68533" d="m9.51 0 2.246 6.91h7.265l-5.878 4.27 2.246 6.91-5.878-4.27-5.878 4.27 2.245-6.91L0 6.91h7.266z"/></svg>
